X: 33708
T: Raoulf
R: jig
M: 6/8
K: Cmajor
edB AdB|A_Az zzE|edB Aa_a|efe Bde|
z3zfe|dBd A_Ad|FBE z3|E_AA BFd:|
c2c Bcc|Ac_e- edc|dcB- BcB|_ABc A2G|
c2c Bcd-|dcB _A3|G2G BGc|GdG _eGf||
g2g f_ed|_edc B_AG|g2g _efg|_agf agf|
g2g f_ed|_edc B_AG|Bcd cB_A|G_AB cd_e||"END"=e2z z3||

